dist/img/arrow-next.svg

<svg width="42" height="14" viewBox="0 0 42 14" fill="none" xmlns="http://www.w3.org/2000/svg">
<path fill-rule="evenodd" clip-rule="evenodd" d="M35.0451 0L41.6831 6.63804L35.0451 13.2761L34.0975 12.3285L39.788 6.63804L34.0975 0.947567L35.0451 0Z" fill="white"/>
<path fill-rule="evenodd" clip-rule="evenodd" d="M40.7356 7.30784L0.227569 7.30784L0.22757 5.96777L40.7356 5.96778L40.7356 7.30784Z" fill="white"/>
</svg>

<svg width="42" height="14" fill="none" xmlns="http://www.w3.org/2000/svg"><path fill-rule="evenodd" clip-rule="evenodd" d="M35.045 0l6.638 6.638-6.638 6.638-.948-.947 5.691-5.691-5.69-5.69.947-.948z" fill="#fff"/><path fill-rule="evenodd" clip-rule="evenodd" d="M40.736 7.308H.228v-1.34h40.508v1.34z" fill="#fff"/></svg>
